X:1
T:Sweet Jane
M:6/8
L:1/8
K:G
 D| G2 G G2 G| G2 E D2 D| G2 G G2 A| B3- B z G| B2 B A2 G| A2 G E2 E|\
 D2 D E2 F| G3- G2||

